X:34
T:Schottis fr{\aa}n V\"asterbotten
R:schottis
A:V\"asterbotten
Z:id:hn-schottis-34
M:C|
L:1/8
K:Am
A^GAB cEGB|BAA^G A3e|e=de^f gB^df|^fee^d e2e2:|
|:eaa<a e2^c2|eaa<a e2^c2|B2E2 B2BB|=cAA^G A2A2:|
